X:131
T:Brays of Dornoch. JJo8.131
%%VWML:JohnsonVol8-2184-p66-0
F:http://www.vwml.org/record/JohnsonVol8/2184/p66
Z:Transcribed by Simon Furey and Lewis Jones
Z:vmp.Simon Wilson 2013 www.village-music-project.org.uk
Z:Dance added by John Chambers 2017
M:C|
L:1/4
%Q:1/2=90
K:G
|: D |\
G2g2 | dBAG | c/d/eee | e2ge |\
dBAG | B2AG | F/G/AAA | A3D |\
G2ge | dBAG | cdef |
g3f/e/ |\
dedB | AdBG | E/F/GGG | G3 :|\
|: G/A/ |\
B2BG | g2gb | dBAG | e2dc |\
B2Bd | g2gb |
dBAG | A2BA |\
GFEF | G2AB | cdef | g3f/e/ |\
dedg | dBAG | E/F/GGG | G3 :|
W: First Cu. lead thro' the 2d and 3d Cu. cast up
W:and turn .| lead thro' the top Cu. cast off and turn :|
W:1st Man set 3 down, his Partner set 3 up at
W:the same time turn 3 and 3 |. 1st Cu. Back
W:to Back and Right and Left at top :|:
W:
T:Neglig. JJo8.132, The
B:J.Johnson Choice Collection Vol 8 1758
Z:vmp.Simon Wilson 2013 www.village-music-project.org.uk
Z:Dance added by John Chambers 2017
M:6/4
L:1/4
%Q:3/4=80
K:Bb
|:\
B2BBcB | f2dB2=B | c2ccdc | g3b3 |\
g2ecec | f2dBdB | e2cAFA | B3B,3 :|
|:\
B2BBcB | d2=ef3 | GABdcB | TB3A2G |\
A2fcBA | B2fdcB | A2fcBA | TG3F2F :|
W: First and 2d Cu. Right hands
W:across round .| Left hands back
W:again :| 1st Cu. cast off, lead
W:thro' the 3d Cu. and cast up |.
W:Right and Left at top :|:
W:
